src/pos-icons/taxi.svg

<svg height="24" viewBox="0 0 24 24" width="24" xmlns="http://www.w3.org/2000/svg"><path d="m5 11 1.5-4.5h11l1.5 4.5m-1.5 5a1.5 1.5 0 0 1 -1.5-1.5 1.5 1.5 0 0 1 1.5-1.5 1.5 1.5 0 0 1 1.5 1.5 1.5 1.5 0 0 1 -1.5 1.5m-11 0a1.5 1.5 0 0 1 -1.5-1.5 1.5 1.5 0 0 1 1.5-1.5 1.5 1.5 0 0 1 1.5 1.5 1.5 1.5 0 0 1 -1.5 1.5m12.42-10c-.2-.58-.76-1-1.42-1h-2.5v-2h-6v2h-2.5c-.66 0-1.22.42-1.42 1l-2.08 6v8a1 1 0 0 0 1 1h1a1 1 0 0 0 1-1v-1h12v1a1 1 0 0 0 1 1h1a1 1 0 0 0 1-1v-8z"/></svg>

<?xml version="1.0" encoding="UTF-8"?><!DOCTYPE svg PUBLIC "-//W3C//DTD SVG 1.1//EN" "http://www.w3.org/Graphics/SVG/1.1/DTD/svg11.dtd"><svg xmlns="http://www.w3.org/2000/svg" xmlns:xlink="http://www.w3.org/1999/xlink" version="1.1" id="mdi-taxi" width="24" height="24" viewBox="0 0 24 24"><path d="M5,11L6.5,6.5H17.5L19,11M17.5,16A1.5,1.5 0 0,1 16,14.5A1.5,1.5 0 0,1 17.5,13A1.5,1.5 0 0,1 19,14.5A1.5,1.5 0 0,1 17.5,16M6.5,16A1.5,1.5 0 0,1 5,14.5A1.5,1.5 0 0,1 6.5,13A1.5,1.5 0 0,1 8,14.5A1.5,1.5 0 0,1 6.5,16M18.92,6C18.72,5.42 18.16,5 17.5,5H15V3H9V5H6.5C5.84,5 5.28,5.42 5.08,6L3,12V20A1,1 0 0,0 4,21H5A1,1 0 0,0 6,20V19H18V20A1,1 0 0,0 19,21H20A1,1 0 0,0 21,20V12L18.92,6Z" /></svg>
